X: 192
T: Nongfu da tu
%%abc-version 2.0
%%abcx-abcm2ps-target-version 5.9.1 (29 Sep 2008)
%%abc-creator hum2abc beta
%%abcx-conversion-date 2013/10/02 07:44:28
%%abc-edited-by Helmut Schaffrath
%%humdrum-veritas 831852837
%%humdrum-veritas-data 848545108
%%continueall 1
%%barnumbers 0
L: 1/8
M: 2/4
K: G
e e/ g/ e d [I:setbarnb 1]| 
e e/ g/ e d | 
B d/ e< B A/ | 
A> GE2 | 
E A A A | 
A B d3/ e/ | 
B d B A | 
A> GE2 |]  



